tools/download-figma-icons/icons/outlined-medium/magnifier-and-euro.svg

<svg width="24" height="24" viewBox="0 0 24 24" fill="none" xmlns="http://www.w3.org/2000/svg">
<path fill-rule="evenodd" clip-rule="evenodd" d="M10.484 1.5001C5.53039 1.5001 1.49997 5.53127 1.49997 10.4842C1.49997 15.4371 5.53039 19.4682 10.484 19.4682C15.4369 19.4682 19.4674 15.4371 19.4674 10.4842C19.4674 5.53127 15.4369 1.5001 10.484 1.5001ZM18.6431 17.0524L23.6703 22.0788C24.109 22.5183 24.109 23.2308 23.6703 23.6703C23.4505 23.89 23.1625 23.9995 22.8745 23.9995C22.5865 23.9995 22.2985 23.89 22.0788 23.6703L17.0517 18.6431C15.2532 20.0936 12.9695 20.9681 10.484 20.9681C4.70315 20.9681 0 16.2649 0 10.484C0 4.70315 4.70315 0 10.484 0C16.2649 0 20.9673 4.70315 20.9673 10.484C20.9673 12.9695 20.0936 15.2532 18.6431 17.0524ZM12.424 14.4042C12.7705 14.2918 13.1147 14.1208 13.4477 13.8958C13.7905 13.6633 14.2577 13.754 14.4887 14.0968C14.7212 14.4403 14.6312 14.906 14.2877 15.1377C13.8385 15.4422 13.3667 15.6755 12.8867 15.8307C12.3108 16.0175 11.7213 16.109 11.1378 16.109C9.67306 16.109 8.24584 15.5345 7.17111 14.459C6.62137 13.9093 6.20963 13.2725 5.93589 12.593H4.27992C3.86593 12.593 3.52994 12.257 3.52994 11.8431C3.52994 11.4283 3.86593 11.0931 4.27992 11.0931H5.56314C5.51964 10.6881 5.51964 10.2801 5.56314 9.87509H4.27992C3.86593 9.87509 3.52994 9.5391 3.52994 9.12511C3.52994 8.71037 3.86593 8.37512 4.27992 8.37512H5.93514C6.20963 7.69489 6.62137 7.05815 7.17111 6.50766C9.07082 4.6072 12.0633 4.31995 14.2877 5.82067C14.6305 6.05317 14.7212 6.51891 14.4895 6.8624C14.2577 7.20515 13.792 7.29439 13.4477 7.0649C11.8173 5.96317 9.62431 6.17542 8.23159 7.56814C7.98634 7.81488 7.79135 8.08938 7.62035 8.37512H12.1548C12.5688 8.37512 12.9047 8.71037 12.9047 9.12511C12.9047 9.5391 12.5688 9.87509 12.1548 9.87509H7.08486C7.02486 10.2793 7.02486 10.6888 7.08486 11.0931H12.1548C12.5688 11.0931 12.9047 11.4283 12.9047 11.8431C12.9047 12.257 12.5688 12.593 12.1548 12.593H7.62035C7.79135 12.8788 7.98634 13.1533 8.23159 13.3985C9.33332 14.4995 10.939 14.885 12.424 14.4042Z" fill="black"/>
</svg>

<svg xmlns="http://www.w3.org/2000/svg" width="24" height="24" fill="none" viewBox="0 0 24 24"><path fill="currentColor" fill-rule="evenodd" d="M10.484 1.5C5.53 1.5 1.5 5.531 1.5 10.484s4.03 8.984 8.984 8.984 8.983-4.03 8.983-8.984S15.437 1.5 10.484 1.5m8.16 15.552 5.026 5.027a1.127 1.127 0 0 1-.796 1.92 1.12 1.12 0 0 1-.795-.329l-5.027-5.027a10.43 10.43 0 0 1-6.568 2.325C4.704 20.968 0 16.265 0 10.484S4.703 0 10.484 0s10.483 4.703 10.483 10.484c0 2.486-.873 4.77-2.324 6.568m-6.22-2.648q.522-.17 1.024-.508a.75.75 0 1 1 .84 1.242 5.55 5.55 0 0 1-3.15.971 5.6 5.6 0 0 1-3.967-1.65 5.6 5.6 0 0 1-1.235-1.866H4.28a.75.75 0 0 1 0-1.5h1.283a5.7 5.7 0 0 1 0-1.218H4.28a.75.75 0 0 1 0-1.5h1.655a5.6 5.6 0 0 1 1.236-1.867 5.63 5.63 0 0 1 7.117-.687.751.751 0 0 1-.84 1.244 4.12 4.12 0 0 0-5.216.503c-.246.247-.44.521-.612.807h4.535a.75.75 0 1 1 0 1.5h-5.07c-.06.404-.06.814 0 1.218h5.07a.75.75 0 1 1 0 1.5H7.62c.171.286.366.56.612.806a4.11 4.11 0 0 0 4.192 1.005" clip-rule="evenodd"/></svg>
